src/icons/hds/ui/signout.svg

<svg viewBox="0 0 24 24" role="img" xmlns="http://www.w3.org/2000/svg"><g fill="none" fill-rule="evenodd"><path d="M0 0h24v24H0z"/><path d="M16 2v5h-2V4H5v16h9v-3h2v5H3V2h13zm2 5l5 5-5 5-1.5-1.5 2.5-2.501L8 13v-2l10.999-.001L16.5 8.5 18 7z" fill="currentColor"/></g></svg>

<svg xmlns="http://www.w3.org/2000/svg" width="24" height="24" viewBox="0 0 24 24">
  <g fill="none" fill-rule="evenodd">
    <rect width="24" height="24"/>
    <path fill="currentColor" d="M16,2 L16,7 L14,7 L14,4 L5,4 L5,20 L14,20 L14,17 L16,17 L16,22 L3,22 L3,2 L16,2 Z M18,7 L23,12 L18,17 L16.5,15.5 L19,12.999 L8,13 L8,11 L18.999,10.999 L16.5,8.5 L18,7 Z"/>
  </g>
</svg>
